apps/penxle.com/src/assets/icons/pencil-underline.svg

<svg viewBox="0 0 20 20" xmlns="http://www.w3.org/2000/svg">
  <path
    d="M15.8333 16.6665H4.16667C3.94565 16.6665 3.73369 16.7543 3.57741 16.9106C3.42113 17.0669 3.33333 17.2788 3.33333 17.4998C3.33333 17.7209 3.42113 17.9328 3.57741 18.0891C3.73369 18.2454 3.94565 18.3332 4.16667 18.3332H15.8333C16.0543 18.3332 16.2663 18.2454 16.4226 18.0891C16.5789 17.9328 16.6667 17.7209 16.6667 17.4998C16.6667 17.2788 16.5789 17.0669 16.4226 16.9106C16.2663 16.7543 16.0543 16.6665 15.8333 16.6665Z"
    fill="#1C1917"
  />
  <path
    d="M4.16667 15H4.24167L7.71667 14.6834C8.09733 14.6455 8.45336 14.4777 8.725 14.2084L16.225 6.70838C16.5161 6.40085 16.6734 5.99047 16.6625 5.56716C16.6515 5.14385 16.4733 4.74213 16.1667 4.45004L13.8833 2.16671C13.5853 1.88679 13.1948 1.72618 12.7861 1.71542C12.3774 1.70467 11.979 1.84452 11.6667 2.10838L4.16667 9.60838C3.8973 9.88002 3.72959 10.236 3.69167 10.6167L3.33333 14.0917C3.32211 14.2138 3.33794 14.3368 3.37972 14.452C3.42149 14.5673 3.48817 14.6719 3.575 14.7584C3.65287 14.8356 3.74521 14.8967 3.84674 14.9382C3.94828 14.9797 4.05699 15.0007 4.16667 15ZM12.725 3.33338L15 5.60838L13.3333 7.23338L11.1 5.00004L12.725 3.33338ZM5.30833 10.7584L10 6.10004L12.25 8.35005L7.58333 13.0167L5.08333 13.25L5.30833 10.7584Z"
    fill="#78716C"
  />
</svg>

<svg xmlns="http://www.w3.org/2000/svg" viewBox="0 0 20 20">
  <path fill="#1C1917" d="M15.833 16.666H4.167a.833.833 0 1 0 0 1.667h11.666a.833.833 0 0 0 0-1.666Z" />
  <path
    fill="#78716C"
    d="M4.167 15h.075l3.475-.317c.38-.037.736-.205 1.008-.475l7.5-7.5a1.6 1.6 0 0 0-.058-2.258l-2.284-2.283a1.667 1.667 0 0 0-2.216-.059l-7.5 7.5c-.27.272-.437.628-.475 1.009l-.359 3.475a.833.833 0 0 0 .834.908Zm8.558-11.667L15 5.608l-1.667 1.625L11.1 5l1.625-1.667Zm-7.417 7.425L10 6.1l2.25 2.25-4.667 4.667-2.5.233.225-2.492Z"
  />
</svg>
